X: 23
M: 4/4
L: 1/8
K: A
[A2E2] |\
[A2E2]Ac BA^/GB | Acef/g/ a2ga |\
bgeg aece | fedc BAGB |
E2[A2E2] [BE]AGB | [A2E2][cE][AE] eAcA |\
agae faec | defg agaf |\
eagf edcB | A2^/c2 A2 |]
P: VAR:
"a."bge2 |] y8 y8 y8 y8 y8 y8 y8 y8


